MFG-dev/images/fig-2-4-44.svg

<?xml version="1.0" encoding="UTF-8" standalone="no"?>
<svg
   xmlns:dc="http://purl.org/dc/elements/1.1/"
   xmlns:cc="http://creativecommons.org/ns#"
   xmlns:rdf="http://www.w3.org/1999/02/22-rdf-syntax-ns#"
   xmlns:svg="http://www.w3.org/2000/svg"
   xmlns="http://www.w3.org/2000/svg"
   xmlns:xlink="http://www.w3.org/1999/xlink"
   xmlns:sodipodi="http://sodipodi.sourceforge.net/DTD/sodipodi-0.dtd"
   xmlns:inkscape="http://www.inkscape.org/namespaces/inkscape"
   width="334.10782pt"
   height="70.213272pt"
   viewBox="0 0 334.10783 70.213272"
   version="1.1"
   id="svg5443"
   inkscape:version="0.91 r13725"
   sodipodi:docname="fig-2-4-44.svg">
  <metadata
     id="metadata5540">
    <rdf:RDF>
      <cc:Work
         rdf:about="">
        <dc:format>image/svg+xml</dc:format>
        <dc:type
           rdf:resource="http://purl.org/dc/dcmitype/StillImage" />
        <dc:title></dc:title>
      </cc:Work>
    </rdf:RDF>
  </metadata>
  <sodipodi:namedview
     pagecolor="#ffffff"
     bordercolor="#666666"
     borderopacity="1"
     objecttolerance="10"
     gridtolerance="10"
     guidetolerance="10"
     inkscape:pageopacity="0"
     inkscape:pageshadow="2"
     inkscape:window-width="1089"
     inkscape:window-height="480"
     id="namedview5538"
     showgrid="false"
     fit-margin-top="0"
     fit-margin-left="0"
     fit-margin-right="0"
     fit-margin-bottom="0"
     inkscape:zoom="1.2194145"
     inkscape:cx="99.288075"
     inkscape:cy="-5.2267456"
     inkscape:window-x="0"
     inkscape:window-y="0"
     inkscape:window-maximized="0"
     inkscape:current-layer="surface1" />
  <defs
     id="defs5445">
    <g
       id="g5447">
      <symbol
         overflow="visible"
         id="glyph0-0"
         style="overflow:visible">
        <path
           style="stroke:none"
           d=""
           id="path5450"
           inkscape:connector-curvature="0" />
      </symbol>
      <symbol
         overflow="visible"
         id="glyph0-1"
         style="overflow:visible">
        <path
           style="stroke:none"
           d="m 3.265625,-0.484375 c -0.484375,-0.03125 -0.703125,0.0625 -0.703125,-0.5 l 0,-4.265625 c 0,-0.59375 0.28125,-0.46875 0.828125,-0.484375 l 0,-0.484375 -3.359375,0 0,0.484375 c 0.546875,0.03125 0.828125,-0.09375 0.828125,0.484375 l 0,4.265625 c 0,0.546875 -0.203125,0.453125 -0.828125,0.515625 l 0,0.46875 3.359375,0 0,-0.46875 z m 0,0"
           id="path5453"
           inkscape:connector-curvature="0" />
      </symbol>
      <symbol
         overflow="visible"
         id="glyph0-2"
         style="overflow:visible">
        <path
           style="stroke:none"
           d="m 6.171875,-6.21875 -2.015625,0 0,0.484375 c 0.640625,0.03125 0.765625,-0.078125 0.765625,0.265625 0,0.1875 -0.09375,0.40625 -0.1875,0.609375 l -1.109375,2.90625 0.265625,0 -1.15625,-2.78125 C 2.65625,-4.96875 2.46875,-5.328125 2.46875,-5.5 c 0,-0.328125 0.078125,-0.203125 0.765625,-0.234375 l 0,-0.484375 L 0,-6.21875 0,-5.75 c 0.515625,0.078125 0.515625,-0.03125 0.734375,0.5 l 2.328125,5.40625 0.390625,0 2.0625,-5.296875 c 0.1875,-0.5 0.171875,-0.53125 0.796875,-0.609375 l 0,-0.46875 z m 0,0"
           id="path5456"
           inkscape:connector-curvature="0" />
      </symbol>
    </g>
    <clipPath
       id="clip1">
      <path
         d="m 0,0 158.39844,0 0,154.82812 -158.39844,0 z m 0,0"
         id="path5459"
         inkscape:connector-curvature="0" />
    </clipPath>
  </defs>
  <g
     id="surface1"
     transform="translate(0.2304629,-3.019531)">
    <path
       style="fill:none;stroke:#ee2e2b;stroke-width:1.176;stroke-linecap:butt;stroke-linejoin:miter;stroke-miterlimit:4;stroke-opacity:1"
       d="m 179.54922,58.81641 c 20.125,-0.0625 28.50781,-24.26172 33.58594,-41.890629"
       id="path5462"
       inkscape:connector-curvature="0" />
    <path
       style="fill:#ee2e2b;fill-opacity:1;fill-rule:nonzero;stroke:none"
       d="m 214.28359,12.9375 0.67579,6.285156 -1.91016,-1.996094 -2.6836,0.671876 3.91797,-4.960938"
       id="path5464"
       inkscape:connector-curvature="0" />
    <g
       style="fill:#211e1e;fill-opacity:1"
       id="g5466"
       transform="translate(177.6,-80)">
      <use
         xlink:href="#glyph0-1"
         x="28.036699"
         y="152.7229"
         id="use5468"
         width="100%"
         height="100%" />
      <use
         xlink:href="#glyph0-1"
         x="31.46768"
         y="152.7229"
         id="use5470"
         width="100%"
         height="100%" />
      <use
         xlink:href="#glyph0-1"
         x="34.898659"
         y="152.7229"
         id="use5472"
         width="100%"
         height="100%" />
    </g>
    <path
       style="fill:none;stroke:#211e1e;stroke-width:0.68599999;stroke-linecap:butt;stroke-linejoin:miter;stroke-miterlimit:4;stroke-opacity:1"
       d="m 241.13125,59.00781 -61.74219,0 0,-53.082029"
       id="path5474"
       inkscape:connector-curvature="0" />
    <path
       style="fill:#211e1e;fill-opacity:1;fill-rule:nonzero;stroke:none"
       d="m 179.38906,3.019531 1.67188,4.09375 -1.67188,-0.972656 -1.67187,0.972656 1.67187,-4.09375"
       id="path5476"
       inkscape:connector-curvature="0" />
    <path
       style="fill:#211e1e;fill-opacity:1;fill-rule:nonzero;stroke:none"
       d="m 244.0375,59.00781 -4.09766,1.67188 0.97266,-1.67188 -0.97266,-1.67187 4.09766,1.67187"
       id="path5478"
       inkscape:connector-curvature="0" />
    <path
       style="fill:none;stroke:#ee2e2b;stroke-width:1.176;stroke-linecap:butt;stroke-linejoin:miter;stroke-miterlimit:4;stroke-opacity:1"
       d="m 275.02578,11.089844 c 1.45703,40.374996 9.90625,43.109376 41.04297,43.039066"
       id="path5480"
       inkscape:connector-curvature="0" />
    <path
       style="fill:#ee2e2b;fill-opacity:1;fill-rule:nonzero;stroke:none"
       d="m 320.225,54.12109 -5.84375,2.40235 1.37891,-2.39453 -1.39063,-2.38672 5.85547,2.3789"
       id="path5482"
       inkscape:connector-curvature="0" />
    <path
       style="fill:#ee2e2b;fill-opacity:1;fill-rule:nonzero;stroke:none"
       d="m 274.87734,6.941406 2.59766,5.761719 -2.4375,-1.300781 -2.33984,1.472656 2.17968,-5.933594"
       id="path5484"
       inkscape:connector-curvature="0" />
    <g
       style="fill:#211e1e;fill-opacity:1"
       id="g5486"
       transform="translate(177.6,-80)">
      <use
         xlink:href="#glyph0-1"
         x="118.124"
         y="152.7229"
         id="use5488"
         width="100%"
         height="100%" />
      <use
         xlink:href="#glyph0-2"
         x="121.55498"
         y="152.7229"
         id="use5490"
         width="100%"
         height="100%" />
    </g>
    <path
       style="fill:none;stroke:#211e1e;stroke-width:0.68599999;stroke-linecap:butt;stroke-linejoin:miter;stroke-miterlimit:4;stroke-opacity:1"
       d="m 330.96719,59.00781 -61.73828,0 0,-53.082029"
       id="path5492"
       inkscape:connector-curvature="0" />
    <path
       style="fill:#211e1e;fill-opacity:1;fill-rule:nonzero;stroke:none"
       d="m 269.22891,3.019531 1.67187,4.09375 -1.67187,-0.972656 -1.67188,0.972656 1.67188,-4.09375"
       id="path5494"
       inkscape:connector-curvature="0" />
    <path
       style="fill:#211e1e;fill-opacity:1;fill-rule:nonzero;stroke:none"
       d="m 333.87734,59.00781 -4.09765,1.67188 0.97265,-1.67188 -0.97265,-1.67187 4.09765,1.67187"
       id="path5496"
       inkscape:connector-curvature="0" />
    <g
       style="fill:#211e1e;fill-opacity:1"
       id="g5498">
      <use
         xlink:href="#glyph0-1"
         x="31.119301"
         y="73.232803"
         id="use5500"
         width="100%"
         height="100%" />
    </g>
    <path
       style="fill:none;stroke:#ee2e2b;stroke-width:1.176;stroke-linecap:butt;stroke-linejoin:miter;stroke-miterlimit:4;stroke-opacity:1"
       d="m 372.47674,240.8125 48.70703,47.50781"
       transform="matrix(1,0,0,-1,-370.8283,300)"
       id="path5502"
       inkscape:connector-curvature="0" />
    <path
       style="fill:#ee2e2b;fill-opacity:1;fill-rule:nonzero;stroke:none"
       d="M 53.324219,8.777344 50.8125,14.574219 50.132812,11.894531 47.46875,11.15625 53.324219,8.777344"
       id="path5504"
       inkscape:connector-curvature="0" />
    <path
       style="fill:none;stroke:#211e1e;stroke-width:0.68599999;stroke-linecap:butt;stroke-linejoin:miter;stroke-miterlimit:4;stroke-opacity:1"
       d="m 434.00799,240.48437 -61.73828,0 0,53.08204"
       transform="matrix(1,0,0,-1,-370.8283,300)"
       id="path5506"
       inkscape:connector-curvature="0" />
    <path
       style="fill:#211e1e;fill-opacity:1;fill-rule:nonzero;stroke:none"
       d="m 1.441406,3.527344 1.671875,4.09375 -1.671875,-0.96875 -1.671875,0.96875 1.671875,-4.09375"
       id="path5508"
       inkscape:connector-curvature="0" />
    <path
       style="fill:#211e1e;fill-opacity:1;fill-rule:nonzero;stroke:none"
       d="m 66.085938,59.515625 -4.09375,1.675781 0.972656,-1.675781 -0.972656,-1.671875 4.09375,1.671875"
       id="path5510"
       inkscape:connector-curvature="0" />
    <g
       style="fill:#211e1e;fill-opacity:1"
       id="g5512">
      <use
         xlink:href="#glyph0-1"
         x="119.2432"
         y="73.232803"
         id="use5514"
         width="100%"
         height="100%" />
      <use
         xlink:href="#glyph0-1"
         x="122.67418"
         y="73.232803"
         id="use5516"
         width="100%"
         height="100%" />
    </g>
    <path
       style="fill:none;stroke:#ee2e2b;stroke-width:1.176;stroke-linecap:butt;stroke-linejoin:miter;stroke-miterlimit:4;stroke-opacity:1"
       d="m 462.22283,240.71875 c 2.38672,22.45312 31.61328,34.26562 49.35938,37.38281"
       transform="matrix(1,0,0,-1,-370.8283,300)"
       id="path5518"
       inkscape:connector-curvature="0" />
    <path
       style="fill:#ee2e2b;fill-opacity:1;fill-rule:nonzero;stroke:none"
       d="m 144.84766,21.175781 -5.34766,3.367188 0.95312,-2.59375 -1.78125,-2.113281 6.17579,1.339843"
       id="path5520"
       inkscape:connector-curvature="0" />
    <path
       style="fill:none;stroke:#211e1e;stroke-width:0.68599999;stroke-linecap:butt;stroke-linejoin:miter;stroke-miterlimit:4;stroke-opacity:1"
       d="m 523.84783,240.48437 -61.73828,0 0,53.08204"
       transform="matrix(1,0,0,-1,-370.8283,300)"
       id="path5522"
       inkscape:connector-curvature="0" />
    <path
       style="fill:#211e1e;fill-opacity:1;fill-rule:nonzero;stroke:none"
       d="m 91.28125,3.527344 1.671875,4.09375 -1.671875,-0.96875 -1.671875,0.96875 1.671875,-4.09375"
       id="path5524"
       inkscape:connector-curvature="0" />
    <path
       style="fill:#211e1e;fill-opacity:1;fill-rule:nonzero;stroke:none"
       d="m 155.92578,59.515625 -4.09375,1.675781 0.96875,-1.675781 -0.96875,-1.671875 4.09375,1.671875"
       id="path5526"
       inkscape:connector-curvature="0" />
    <g
       clip-path="url(#clip1)"
       id="g5528"
       style="clip-rule:nonzero">
      <path
         style="fill:none;stroke:#ffffff;stroke-width:0.5;stroke-linecap:butt;stroke-linejoin:miter;stroke-miterlimit:10;stroke-opacity:1"
         d="m 42.000175,804 0,-24 m -42,-18 24,0 m 630.000005,42 0,-24 m 42,-18 -24,0 M 42.000175,0 l 0,24 m -42,18 24,0 M 654.00018,0 l 0,24 m 42,18 -24,0"
         transform="matrix(1,0,0,-1,-370.8283,300)"
         id="path5530"
         inkscape:connector-curvature="0" />
      <path
         style="fill:none;stroke:#000000;stroke-width:0.25;stroke-linecap:butt;stroke-linejoin:miter;stroke-miterlimit:10;stroke-opacity:1"
         d="m 42.000175,804 0,-24 m -42,-18 24,0 m 630.000005,42 0,-24 m 42,-18 -24,0 M 42.000175,0 l 0,24 m -42,18 24,0 M 654.00018,0 l 0,24 m 42,18 -24,0"
         transform="matrix(1,0,0,-1,-370.8283,300)"
         id="path5532"
         inkscape:connector-curvature="0" />
      <path
         style="fill:none;stroke:#ffffff;stroke-width:0.5;stroke-linecap:butt;stroke-linejoin:miter;stroke-miterlimit:10;stroke-opacity:1"
         d="m 324.00018,792 48,0 m -48,-780 48,0 m -360.000005,414 0,-48 m 672.000005,48 0,-48 m -336,426 0,-24 m 0,-756 0,-24 M 1.75e-4,402 l 24,0 m 648.000005,0 24,0 m -348,390 6,0 c 0,-3.3125 -2.6875,-6 -6,-6 -3.3125,0 -6,2.6875 -6,6 0,3.3125 2.6875,6 6,6 3.3125,0 6,-2.6875 6,-6 m -6,-780 6,0 c 0,-3.3125 -2.6875,-6 -6,-6 -3.3125,0 -6,2.6875 -6,6 0,3.3125 2.6875,6 6,6 3.3125,0 6,-2.6875 6,-6 m -342.000005,390 6,0 c 0,-3.3125 -2.6875,-6 -6,-6 -3.3125,0 -6,2.6875 -6,6 0,3.3125 2.6875,6 6,6 3.3125,0 6,-2.6875 6,-6 m 666.000005,0 6,0 c 0,-3.3125 -2.6875,-6 -6,-6 -3.3125,0 -6,2.6875 -6,6 0,3.3125 2.6875,6 6,6 3.3125,0 6,-2.6875 6,-6"
         transform="matrix(1,0,0,-1,-370.8283,300)"
         id="path5534"
         inkscape:connector-curvature="0" />
      <path
         style="fill:none;stroke:#000000;stroke-width:0.25;stroke-linecap:butt;stroke-linejoin:miter;stroke-miterlimit:10;stroke-opacity:1"
         d="m 324.00018,792 48,0 m -48,-780 48,0 m -360.000005,414 0,-48 m 672.000005,48 0,-48 m -336,426 0,-24 m 0,-756 0,-24 M 1.75e-4,402 l 24,0 m 648.000005,0 24,0 m -348,390 6,0 c 0,-3.3125 -2.6875,-6 -6,-6 -3.3125,0 -6,2.6875 -6,6 0,3.3125 2.6875,6 6,6 3.3125,0 6,-2.6875 6,-6 m -6,-780 6,0 c 0,-3.3125 -2.6875,-6 -6,-6 -3.3125,0 -6,2.6875 -6,6 0,3.3125 2.6875,6 6,6 3.3125,0 6,-2.6875 6,-6 m -342.000005,390 6,0 c 0,-3.3125 -2.6875,-6 -6,-6 -3.3125,0 -6,2.6875 -6,6 0,3.3125 2.6875,6 6,6 3.3125,0 6,-2.6875 6,-6 m 666.000005,0 6,0 c 0,-3.3125 -2.6875,-6 -6,-6 -3.3125,0 -6,2.6875 -6,6 0,3.3125 2.6875,6 6,6 3.3125,0 6,-2.6875 6,-6"
         transform="matrix(1,0,0,-1,-370.8283,300)"
         id="path5536"
         inkscape:connector-curvature="0" />
    </g>
  </g>
</svg>

<?xml version="1.0" encoding="UTF-8"?>
<svg xmlns="http://www.w3.org/2000/svg" xmlns:xlink="http://www.w3.org/1999/xlink" width="158.4pt" height="154.8284pt" viewBox="0 0 158.4 154.8284" version="1.1">
<defs>
<g>
<symbol overflow="visible" id="glyph0-0">
<path style="stroke:none;" d=""/>
</symbol>
<symbol overflow="visible" id="glyph0-1">
<path style="stroke:none;" d="M 3.265625 -0.484375 C 2.78125 -0.515625 2.5625 -0.421875 2.5625 -0.984375 L 2.5625 -5.25 C 2.5625 -5.84375 2.84375 -5.71875 3.390625 -5.734375 L 3.390625 -6.21875 L 0.03125 -6.21875 L 0.03125 -5.734375 C 0.578125 -5.703125 0.859375 -5.828125 0.859375 -5.25 L 0.859375 -0.984375 C 0.859375 -0.4375 0.65625 -0.53125 0.03125 -0.46875 L 0.03125 0 L 3.390625 0 L 3.390625 -0.46875 Z M 3.265625 -0.484375 "/>
</symbol>
<symbol overflow="visible" id="glyph0-2">
<path style="stroke:none;" d="M 6.171875 -6.21875 L 4.15625 -6.21875 L 4.15625 -5.734375 C 4.796875 -5.703125 4.921875 -5.8125 4.921875 -5.46875 C 4.921875 -5.28125 4.828125 -5.0625 4.734375 -4.859375 L 3.625 -1.953125 L 3.890625 -1.953125 L 2.734375 -4.734375 C 2.65625 -4.96875 2.46875 -5.328125 2.46875 -5.5 C 2.46875 -5.828125 2.546875 -5.703125 3.234375 -5.734375 L 3.234375 -6.21875 L 0 -6.21875 L 0 -5.75 C 0.515625 -5.671875 0.515625 -5.78125 0.734375 -5.25 L 3.0625 0.15625 L 3.453125 0.15625 L 5.515625 -5.140625 C 5.703125 -5.640625 5.6875 -5.671875 6.3125 -5.75 L 6.3125 -6.21875 Z M 6.171875 -6.21875 "/>
</symbol>
</g>
<clipPath id="clip1">
  <path d="M 0 0 L 158.398438 0 L 158.398438 154.828125 L 0 154.828125 Z M 0 0 "/>
</clipPath>
</defs>
<g id="surface1">
<path style="fill:none;stroke-width:1.176;stroke-linecap:butt;stroke-linejoin:miter;stroke:rgb(93.609619%,18.434143%,17.378235%);stroke-opacity:1;stroke-miterlimit:4;" d="M 372.777519 161.183594 C 392.902519 161.246094 401.285331 185.445312 406.363456 203.074219 " transform="matrix(1,0,0,-1,-370.8283,300)"/>
<path style=" stroke:none;fill-rule:nonzero;fill:rgb(93.609619%,18.434143%,17.378235%);fill-opacity:1;" d="M 36.683594 92.9375 L 37.359375 99.222656 L 35.449219 97.226562 L 32.765625 97.898438 L 36.683594 92.9375 "/>
<g style="fill:rgb(13.729858%,12.159729%,12.548828%);fill-opacity:1;">
  <use xlink:href="#glyph0-1" x="28.0367" y="152.7229"/>
  <use xlink:href="#glyph0-1" x="31.46768" y="152.7229"/>
  <use xlink:href="#glyph0-1" x="34.89866" y="152.7229"/>
</g>
<path style="fill:none;stroke-width:0.686;stroke-linecap:butt;stroke-linejoin:miter;stroke:rgb(13.729858%,12.159729%,12.548828%);stroke-opacity:1;stroke-miterlimit:4;" d="M 434.35955 160.992188 L 372.617362 160.992188 L 372.617362 214.074219 " transform="matrix(1,0,0,-1,-370.8283,300)"/>
<path style=" stroke:none;fill-rule:nonzero;fill:rgb(13.729858%,12.159729%,12.548828%);fill-opacity:1;" d="M 1.789062 83.019531 L 3.460938 87.113281 L 1.789062 86.140625 L 0.117188 87.113281 L 1.789062 83.019531 "/>
<path style=" stroke:none;fill-rule:nonzero;fill:rgb(13.729858%,12.159729%,12.548828%);fill-opacity:1;" d="M 66.4375 139.007812 L 62.339844 140.679688 L 63.3125 139.007812 L 62.339844 137.335938 L 66.4375 139.007812 "/>
<path style="fill:none;stroke-width:1.176;stroke-linecap:butt;stroke-linejoin:miter;stroke:rgb(93.609619%,18.434143%,17.378235%);stroke-opacity:1;stroke-miterlimit:4;" d="M 468.254081 208.910156 C 469.711112 168.535156 478.160331 165.800781 509.29705 165.871094 " transform="matrix(1,0,0,-1,-370.8283,300)"/>
<path style=" stroke:none;fill-rule:nonzero;fill:rgb(93.609619%,18.434143%,17.378235%);fill-opacity:1;" d="M 142.625 134.121094 L 136.78125 136.523438 L 138.160156 134.128906 L 136.769531 131.742188 L 142.625 134.121094 "/>
<path style=" stroke:none;fill-rule:nonzero;fill:rgb(93.609619%,18.434143%,17.378235%);fill-opacity:1;" d="M 97.277344 86.941406 L 99.875 92.703125 L 97.4375 91.402344 L 95.097656 92.875 L 97.277344 86.941406 "/>
<g style="fill:rgb(13.729858%,12.159729%,12.548828%);fill-opacity:1;">
  <use xlink:href="#glyph0-1" x="118.124" y="152.7229"/>
  <use xlink:href="#glyph0-2" x="121.55498" y="152.7229"/>
</g>
<path style="fill:none;stroke-width:0.686;stroke-linecap:butt;stroke-linejoin:miter;stroke:rgb(13.729858%,12.159729%,12.548828%);stroke-opacity:1;stroke-miterlimit:4;" d="M 524.195487 160.992188 L 462.457206 160.992188 L 462.457206 214.074219 " transform="matrix(1,0,0,-1,-370.8283,300)"/>
<path style=" stroke:none;fill-rule:nonzero;fill:rgb(13.729858%,12.159729%,12.548828%);fill-opacity:1;" d="M 91.628906 83.019531 L 93.300781 87.113281 L 91.628906 86.140625 L 89.957031 87.113281 L 91.628906 83.019531 "/>
<path style=" stroke:none;fill-rule:nonzero;fill:rgb(13.729858%,12.159729%,12.548828%);fill-opacity:1;" d="M 156.277344 139.007812 L 152.179688 140.679688 L 153.152344 139.007812 L 152.179688 137.335938 L 156.277344 139.007812 "/>
<g style="fill:rgb(13.729858%,12.159729%,12.548828%);fill-opacity:1;">
  <use xlink:href="#glyph0-1" x="31.1193" y="73.2328"/>
</g>
<path style="fill:none;stroke-width:1.176;stroke-linecap:butt;stroke-linejoin:miter;stroke:rgb(93.609619%,18.434143%,17.378235%);stroke-opacity:1;stroke-miterlimit:4;" d="M 372.476737 240.8125 L 421.183769 288.320312 " transform="matrix(1,0,0,-1,-370.8283,300)"/>
<path style=" stroke:none;fill-rule:nonzero;fill:rgb(93.609619%,18.434143%,17.378235%);fill-opacity:1;" d="M 53.324219 8.777344 L 50.8125 14.574219 L 50.132812 11.894531 L 47.46875 11.15625 L 53.324219 8.777344 "/>
<path style="fill:none;stroke-width:0.686;stroke-linecap:butt;stroke-linejoin:miter;stroke:rgb(13.729858%,12.159729%,12.548828%);stroke-opacity:1;stroke-miterlimit:4;" d="M 434.007987 240.484375 L 372.269706 240.484375 L 372.269706 293.566406 " transform="matrix(1,0,0,-1,-370.8283,300)"/>
<path style=" stroke:none;fill-rule:nonzero;fill:rgb(13.729858%,12.159729%,12.548828%);fill-opacity:1;" d="M 1.441406 3.527344 L 3.113281 7.621094 L 1.441406 6.652344 L -0.230469 7.621094 L 1.441406 3.527344 "/>
<path style=" stroke:none;fill-rule:nonzero;fill:rgb(13.729858%,12.159729%,12.548828%);fill-opacity:1;" d="M 66.085938 59.515625 L 61.992188 61.191406 L 62.964844 59.515625 L 61.992188 57.84375 L 66.085938 59.515625 "/>
<g style="fill:rgb(13.729858%,12.159729%,12.548828%);fill-opacity:1;">
  <use xlink:href="#glyph0-1" x="119.2432" y="73.2328"/>
  <use xlink:href="#glyph0-1" x="122.67418" y="73.2328"/>
</g>
<path style="fill:none;stroke-width:1.176;stroke-linecap:butt;stroke-linejoin:miter;stroke:rgb(93.609619%,18.434143%,17.378235%);stroke-opacity:1;stroke-miterlimit:4;" d="M 462.222831 240.71875 C 464.60955 263.171875 493.836112 274.984375 511.582206 278.101562 " transform="matrix(1,0,0,-1,-370.8283,300)"/>
<path style=" stroke:none;fill-rule:nonzero;fill:rgb(93.609619%,18.434143%,17.378235%);fill-opacity:1;" d="M 144.847656 21.175781 L 139.5 24.542969 L 140.453125 21.949219 L 138.671875 19.835938 L 144.847656 21.175781 "/>
<path style="fill:none;stroke-width:0.686;stroke-linecap:butt;stroke-linejoin:miter;stroke:rgb(13.729858%,12.159729%,12.548828%);stroke-opacity:1;stroke-miterlimit:4;" d="M 523.847831 240.484375 L 462.10955 240.484375 L 462.10955 293.566406 " transform="matrix(1,0,0,-1,-370.8283,300)"/>
<path style=" stroke:none;fill-rule:nonzero;fill:rgb(13.729858%,12.159729%,12.548828%);fill-opacity:1;" d="M 91.28125 3.527344 L 92.953125 7.621094 L 91.28125 6.652344 L 89.609375 7.621094 L 91.28125 3.527344 "/>
<path style=" stroke:none;fill-rule:nonzero;fill:rgb(13.729858%,12.159729%,12.548828%);fill-opacity:1;" d="M 155.925781 59.515625 L 151.832031 61.191406 L 152.800781 59.515625 L 151.832031 57.84375 L 155.925781 59.515625 "/>
<g clip-path="url(#clip1)" clip-rule="nonzero">
<path style="fill:none;stroke-width:0.5;stroke-linecap:butt;stroke-linejoin:miter;stroke:rgb(100%,100%,100%);stroke-opacity:1;stroke-miterlimit:10;" d="M 42.000175 804 L 42.000175 780 M 0.000175 762 L 24.000175 762 M 654.000175 804 L 654.000175 780 M 696.000175 762 L 672.000175 762 M 42.000175 0 L 42.000175 24 M 0.000175 42 L 24.000175 42 M 654.000175 0 L 654.000175 24 M 696.000175 42 L 672.000175 42 " transform="matrix(1,0,0,-1,-370.8283,300)"/>
<path style="fill:none;stroke-width:0.25;stroke-linecap:butt;stroke-linejoin:miter;stroke:rgb(0%,0%,0%);stroke-opacity:1;stroke-miterlimit:10;" d="M 42.000175 804 L 42.000175 780 M 0.000175 762 L 24.000175 762 M 654.000175 804 L 654.000175 780 M 696.000175 762 L 672.000175 762 M 42.000175 0 L 42.000175 24 M 0.000175 42 L 24.000175 42 M 654.000175 0 L 654.000175 24 M 696.000175 42 L 672.000175 42 " transform="matrix(1,0,0,-1,-370.8283,300)"/>
<path style="fill:none;stroke-width:0.5;stroke-linecap:butt;stroke-linejoin:miter;stroke:rgb(100%,100%,100%);stroke-opacity:1;stroke-miterlimit:10;" d="M 324.000175 792 L 372.000175 792 M 324.000175 12 L 372.000175 12 M 12.000175 426 L 12.000175 378 M 684.000175 426 L 684.000175 378 M 348.000175 804 L 348.000175 780 M 348.000175 24 L 348.000175 0 M 0.000175 402 L 24.000175 402 M 672.000175 402 L 696.000175 402 M 348.000175 792 L 354.000175 792 C 354.000175 788.6875 351.312675 786 348.000175 786 C 344.687675 786 342.000175 788.6875 342.000175 792 C 342.000175 795.3125 344.687675 798 348.000175 798 C 351.312675 798 354.000175 795.3125 354.000175 792 M 348.000175 12 L 354.000175 12 C 354.000175 8.6875 351.312675 6 348.000175 6 C 344.687675 6 342.000175 8.6875 342.000175 12 C 342.000175 15.3125 344.687675 18 348.000175 18 C 351.312675 18 354.000175 15.3125 354.000175 12 M 12.000175 402 L 18.000175 402 C 18.000175 398.6875 15.312675 396 12.000175 396 C 8.687675 396 6.000175 398.6875 6.000175 402 C 6.000175 405.3125 8.687675 408 12.000175 408 C 15.312675 408 18.000175 405.3125 18.000175 402 M 684.000175 402 L 690.000175 402 C 690.000175 398.6875 687.312675 396 684.000175 396 C 680.687675 396 678.000175 398.6875 678.000175 402 C 678.000175 405.3125 680.687675 408 684.000175 408 C 687.312675 408 690.000175 405.3125 690.000175 402 " transform="matrix(1,0,0,-1,-370.8283,300)"/>
<path style="fill:none;stroke-width:0.25;stroke-linecap:butt;stroke-linejoin:miter;stroke:rgb(0%,0%,0%);stroke-opacity:1;stroke-miterlimit:10;" d="M 324.000175 792 L 372.000175 792 M 324.000175 12 L 372.000175 12 M 12.000175 426 L 12.000175 378 M 684.000175 426 L 684.000175 378 M 348.000175 804 L 348.000175 780 M 348.000175 24 L 348.000175 0 M 0.000175 402 L 24.000175 402 M 672.000175 402 L 696.000175 402 M 348.000175 792 L 354.000175 792 C 354.000175 788.6875 351.312675 786 348.000175 786 C 344.687675 786 342.000175 788.6875 342.000175 792 C 342.000175 795.3125 344.687675 798 348.000175 798 C 351.312675 798 354.000175 795.3125 354.000175 792 M 348.000175 12 L 354.000175 12 C 354.000175 8.6875 351.312675 6 348.000175 6 C 344.687675 6 342.000175 8.6875 342.000175 12 C 342.000175 15.3125 344.687675 18 348.000175 18 C 351.312675 18 354.000175 15.3125 354.000175 12 M 12.000175 402 L 18.000175 402 C 18.000175 398.6875 15.312675 396 12.000175 396 C 8.687675 396 6.000175 398.6875 6.000175 402 C 6.000175 405.3125 8.687675 408 12.000175 408 C 15.312675 408 18.000175 405.3125 18.000175 402 M 684.000175 402 L 690.000175 402 C 690.000175 398.6875 687.312675 396 684.000175 396 C 680.687675 396 678.000175 398.6875 678.000175 402 C 678.000175 405.3125 680.687675 408 684.000175 408 C 687.312675 408 690.000175 405.3125 690.000175 402 " transform="matrix(1,0,0,-1,-370.8283,300)"/>
</g>
</g>
</svg>
